src/svgs/Logo_Culto_white.svg

<svg version="1.1" id="Layer_1" xmlns="http://www.w3.org/2000/svg" x="0" y="0" viewBox="0 0 526.5 203.8" xml:space="preserve"><style>.st0{fill:#fff}</style><path class="st0" d="M74.2 161.7l-2.3-2.3-2.7 2.8h4.5z"/><path class="st0" d="M39.7 0v41.6H0v162.2h486.8v-41.6h39.7V0H39.7zM3.2 44.8h23.6L3.2 68.4V44.8zm0 28.1l28.1-28.1h8.3v19L3.2 100.4V72.9zm0 32l36.4-36.4v27.4L3.2 132.3v-27.4zm0 32l36.4-36.5v27.4L3.2 164.2v-27.3zm0 31.9l36.4-36.5v27.4L3.2 196.2v-27.4zm27.6 31.8H3.4l38.4-38.4h27.4l-38.4 38.4zm32 0H35.4l38.4-38.4h27.4l-38.4 38.4zm32 0H67.3l38.4-38.4h27.4l-38.3 38.4zm32 0H99.3l38.4-38.4h27.4l-38.3 38.4zm32 0h-27.4l38.4-38.4h27.4l-38.4 38.4zm31.9 0h-27.5l38.4-38.4H229l-38.3 38.4zm32 0h-27.4l38.4-38.4H261l-38.3 38.4zm31.9 0h-27.5l38.4-38.4h27.4l-38.3 38.4zm32 0h-27.5l38.4-38.4h27.4l-38.3 38.4zm32 0H291l38.4-38.4h27.4l-38.2 38.4zm31.9 0h-27.6l38.4-38.4h27.4l-38.2 38.4zm32 0h-27.6l38.4-38.4h27.4l-38.2 38.4zm32 0h-27.4l38.4-38.4h27.4l-38.4 38.4zm69.3 0h-33l32.8-32.8.2 32.8zm0-37.4l-37.4 37.4h-27.6l38.4-38.4h26.4l.2 1zm39.7-4.2H42.9V3.2h480.4l.2 155.8z"/><path class="st0" d="M125.3 101c-8.7 0-14.9-7.3-14.9-18.3s6.2-18.2 14.9-18.2c4.2-.1 8.3 1.6 11.1 4.7l7.7-11.7s-5.9-7.7-19-7.7c-1.1 0-2.1.1-3.2.2-2 .2-3.9.6-5.8 1.2-8.2 2.7-14.1 9-17.2 17.2-.8 2.1-1.4 4.2-1.8 6.3-.5 2.6-.8 5.3-.8 8 0 18.1 10.7 33 28.7 33 13.1 0 19-7.8 19-7.8l-7.7-11.7c-2.7 3.3-6.8 5-11 4.8m93-13.9c0 7.9-3.4 13.9-11.2 13.9-7.5 0-11.2-6-11.2-13.9V51.3h-13.5v35.8c0 16.3 9.6 28.7 24.7 28.7 15.4 0 24.7-12.4 24.7-28.7V51.3h-13.4v35.8zm70.2-35.8H275v62.9h38.3v-13.1h-24.8zm52.9 13.1h15.7v49.9h13.5V64.4h15.6V51.3h-44.8z"/><path class="st0" d="M288.5 51.3H275v62.9h38.3v-13.1h-24.8zm-70.2 35.8c0 7.9-3.4 13.9-11.2 13.9-7.5 0-11.2-6-11.2-13.9V51.3h-13.5v35.8c0 16.3 9.6 28.7 24.7 28.7 15.4 0 24.7-12.4 24.7-28.7V51.3h-13.4v35.8zm123.1-22.7h15.7v49.9h13.5V64.4h15.6V51.3h-44.8zM450 49.9c-16.8 0-28.5 14.8-28.5 32.9s11.7 33 28.5 33c17 0 28.7-14.9 28.7-33S466.9 49.9 450 49.9m0 51c-8.1 0-14.6-7.2-14.6-18.2s6.5-18.2 14.6-18.2c8.2 0 14.7 7.2 14.7 18.2s-6.5 18.2-14.7 18.2"/></svg>

<?xml version="1.0" encoding="utf-8"?>
<!-- Generator: Adobe Illustrator 23.0.1, SVG Export Plug-In . SVG Version: 6.00 Build 0)  -->
<svg version="1.1" id="Layer_1" xmlns="http://www.w3.org/2000/svg" xmlns:xlink="http://www.w3.org/1999/xlink" x="0px" y="0px"
	 viewBox="0 0 526.5 203.8" style="enable-background:new 0 0 526.5 203.8;" xml:space="preserve">
<style type="text/css">
	.st0{fill:#FFFFFF;}
</style>
<title>Logo_Culto_white_RGB</title>
<polygon class="st0" points="74.2,161.7 71.9,159.4 69.2,162.2 73.7,162.2 "/>
<path class="st0" d="M39.7,0v41.6H0v162.2h486.8v-41.6h39.7V0H39.7z M3.2,44.8h23.6L3.2,68.4V44.8z M3.2,72.9l28.1-28.1h8.3v19
	L3.2,100.4V72.9z M3.2,104.9l36.4-36.4v27.4L3.2,132.3V104.9z M3.2,136.9l36.4-36.5v27.4L3.2,164.2V136.9z M3.2,168.8l36.4-36.5
	v27.4L3.2,196.2V168.8z M30.8,200.6H3.4l38.4-38.4h27.4L30.8,200.6z M62.8,200.6H35.4l38.4-38.4h27.4L62.8,200.6z M94.8,200.6H67.3
	l38.4-38.4h27.4L94.8,200.6z M126.8,200.6H99.3l38.4-38.4h27.4L126.8,200.6z M158.8,200.6h-27.4l38.4-38.4h27.4L158.8,200.6z
	 M190.7,200.6h-27.5l38.4-38.4h27.4L190.7,200.6z M222.7,200.6h-27.4l38.4-38.4H261L222.7,200.6z M254.6,200.6h-27.5l38.4-38.4h27.4
	L254.6,200.6z M286.6,200.6h-27.5l38.4-38.4h27.4L286.6,200.6z M318.6,200.6H291l38.4-38.4h27.4L318.6,200.6z M350.5,200.6h-27.6
	l38.4-38.4h27.4L350.5,200.6z M382.5,200.6h-27.6l38.4-38.4h27.4L382.5,200.6z M414.5,200.6h-27.4l38.4-38.4h27.4L414.5,200.6z
	 M483.8,200.6h-33l32.8-32.8L483.8,200.6z M483.8,163.2l-37.4,37.4h-27.6l38.4-38.4h26.4L483.8,163.2z M523.5,159H42.9V3.2h480.4
	L523.5,159z"/>
<path class="st0" d="M125.3,101c-8.7,0-14.9-7.3-14.9-18.3s6.2-18.2,14.9-18.2c4.2-0.1,8.3,1.6,11.1,4.7l7.7-11.7
	c0,0-5.9-7.7-19-7.7c-1.1,0-2.1,0.1-3.2,0.2c-2,0.2-3.9,0.6-5.8,1.2c-8.2,2.7-14.1,9-17.2,17.2c-0.8,2.1-1.4,4.2-1.8,6.3
	c-0.5,2.6-0.8,5.3-0.8,8c0,18.1,10.7,33,28.7,33c13.1,0,19-7.8,19-7.8l-7.7-11.7C133.6,99.5,129.5,101.2,125.3,101"/>
<path class="st0" d="M218.3,87.1c0,7.9-3.4,13.9-11.2,13.9c-7.5,0-11.2-6-11.2-13.9V51.3h-13.5v35.8c0,16.3,9.6,28.7,24.7,28.7
	c15.4,0,24.7-12.4,24.7-28.7V51.3h-13.4V87.1z"/>
<polygon class="st0" points="288.5,51.3 275,51.3 275,114.2 313.3,114.2 313.3,101.1 288.5,101.1 "/>
<polygon class="st0" points="341.4,64.4 357.1,64.4 357.1,114.3 370.6,114.3 370.6,64.4 386.2,64.4 386.2,51.3 341.4,51.3 "/>
<polygon class="st0" points="288.5,51.3 275,51.3 275,114.2 313.3,114.2 313.3,101.1 288.5,101.1 "/>
<path class="st0" d="M218.3,87.1c0,7.9-3.4,13.9-11.2,13.9c-7.5,0-11.2-6-11.2-13.9V51.3h-13.5v35.8c0,16.3,9.6,28.7,24.7,28.7
	c15.4,0,24.7-12.4,24.7-28.7V51.3h-13.4V87.1z"/>
<polygon class="st0" points="341.4,64.4 357.1,64.4 357.1,114.3 370.6,114.3 370.6,64.4 386.2,64.4 386.2,51.3 341.4,51.3 "/>
<path class="st0" d="M450,49.9c-16.8,0-28.5,14.8-28.5,32.9s11.7,33,28.5,33c17,0,28.7-14.9,28.7-33S466.9,49.9,450,49.9 M450,100.9
	c-8.1,0-14.6-7.2-14.6-18.2s6.5-18.2,14.6-18.2c8.2,0,14.7,7.2,14.7,18.2S458.2,100.9,450,100.9"/>
</svg>
